X:1
T:The Rains of Castamere
T:The Rains of Castamere
T:Ramin Djawadi Arr. by Gabe Russell
T:Solo Clarinet with Accompaniment Leave Suggestions for More Free Content and Access the Sheet Music from My Library! Live Life, Breathe Music!
T:Lannister Theme from Game of Thrones 
C:Ramin Djawadi
%%score 1 2
L:1/8
Q:1/4=73
M:4/4
K:F
V:1 treble transpose=-2 nm="B♭ Clarinet" snm="B♭ Cl."
V:2 bass nm="Trombone/Euphonium" snm="Tbn. / Euph."
V:1
[K:G] z!mp! B, | G3 B, F3 B, | G2 A2 F3 B, | A2 G2 F2 E2 | F6 z2 | B B2 c A2 DD | B2 c2 A3 D | %7
 c2 B2 A2 G2 | F6 z [B,F]/[B,F]/ | G3 B, F3 B, | G2 A2 F3 B, | A2 G2 F2 E2 | F6 z D | B3 c A3 D | %14
 B2 c2 A3 D | c2 B2 A2 G2 | E8- | E4 z2!mf! B,2 | FG E4 G2 | GF B,4 z B, | FG E4 G2 | %21
 G F3- F2 z B, | FG E4 B2 | B2 A2 E3 A | G3 E F3 G | E4 z2 B,2 | FG E4 B2 | B2 A2 E3 A | %28
 G3 E BAFG | E8- | E4 z2 z!f! B | g3 B f3 B | g2 a2 f3 B | a2 g2 f2 e2 | f6 z2 | b b2 c' a2 dd | %36
 b2 c'2 a3 d | c'2 b2 a2 g2 | f6 z [Bf]/[Bf]/ | g3 B f3 B | g2 a2 f3 B | a2 g2 f2 e2 | f6 z d | %43
 b3 c' a3 d | b2 c'2 a3 d | c'2 b2 a2 g2 | e8- |!<(! e6!<)!!f! B2 | fg e4 g2 | gf B4 z B | %50
 fg e4 g2 | g f3- f2 z B | fg e4 b2 | b2 a2 e3 a | g3 e f3 g | e6!>(! B2!>)! |!mf! fg e4 b2 | %57
 b2 a2 e3 a | g3 e!>(! bafg!>)! |!mp! e8 |] %60
V:2
 z2 |!p! [A,,D,F,]4 [A,,C,E,]4 | [A,,D,F,]4 [G,,C,G,]4 | [B,,D,G,]4 [G,,C,G,]4 | %4
 [A,,C,A,]4 [G,,C,G,]4 | [F,,C,A,]4 [E,,C,G,]4 | [F,,C,F,]4 [E,,C,G,]4 | [G,,D,G,]4 [B,,D,G,]4 | %8
 [A,,C,A,]4 [G,,C,G,]4 | [A,,D,F,]4 [A,,C,E,]4 | [A,,D,A,]4 [G,,C,G,]4 | [B,,D,B,]4 [G,,C,C]4 | %12
 [A,,C,A,]4 [G,,C,G,]4 | [F,,C,A,]4 [E,,C,G,]4 | [F,,C,A,]4 [E,,C,G,]4 | [G,,D,B,]4 [E,,C,C]4 | %16
 [D,,A,,A,]4 [E,,B,,G,]4 | [G,,D,B,]4 [F,,D,A,]4 |!p! [A,,E,A,]4 [A,,D,A,]4 | %19
 [C,E,A,]4 [B,,D,G,]4 | [A,,D,A,]4 [F,,D,F,]4 | [G,,C,G,]4 [F,,D,A,]4 | [F,,D,B,]4 [F,,D,A,]4 | %23
 [G,,D,B,]4 [F,,D,B,]4 | [F,,C,A,]4 [G,,C,G,]4 | [A,,D,F,]4 [B,,E,G,]4 | [A,,D,F,]4 [B,,D,F,]4 | %27
 [C,E,A,]4 [B,,F,B,]4 | [C,F,A,]4 [A,,E,A,]4 | [A,,D,F,]4 [G,,E,A,]4 | %30
!<(! [F,,D,B,]4 [G,,E,^C]4!<)! |!mf! [A,,F,D]4 [A,,E,C]4 | [B,,F,D]4 [C,G,C]4 | %33
 [G,,D,B,]4 [F,,C,A,]4 | [A,,C,A,]4 [G,,E,B,]4 | [F,,C,A,]4 [G,,C,G,]4 | [F,,C,A,]4 [G,,C,G,]4 | %37
 [G,,D,B,]4 [A,,E,C]4 | [A,,E,A,]4 [G,,D,G,]4 | [F,,D,A,]4 [A,,C,F,]4 | [F,,D,B,]4 [F,,C,A,]4 | %41
 [G,,D,B,]4 [F,,C,A,]4 | [A,,C,G,]4 [G,,C,G,]4 | [F,,C,A,]4 [G,,C,G,]4 | [F,,C,A,]4 [E,,C,G,]4 | %45
 [F,,D,B,]4 [G,,E,B,]4 | [F,,D,A,]4 [G,,E,B,]4 | [G,,E,C]4!<(! [G,,E,B,]4!<)! | %48
!mf! [F,,D,A,]4 [F,,C,A,]4 | [A,,C,A,]4 [G,,C,A,]4 | [A,,D,F,]4 [A,,E,G,]4 | %51
 [A,,C,G,]4 [G,,D,B,]4 | [F,,D,A,]4 [F,,C,A,]4 | [G,,D,B,]4 [F,,E,A,]4 | [F,,C,A,]4 [A,,E,C]4 | %55
 [A,,F,D]4!>(! [G,,E,B,]4!>)! |!mf! [F,,C,A,]4!>(! [F,,B,,G,]4 | [G,,D,B,]4 [F,,C,A,]4 | %58
 [A,,E,C]4 [G,,E,^C]4!>)! |!pp! [A,,F,D]8 |] %60

